X: 168
T: No_29_Cypress_Swamp_Hunting_Dance_Song_(d).krn
N: Derived from No_29_Cypress_Swamp_Hunting_Dance_Song_(d).krn
%%abc-version 2.0
%%abcx-abcm2ps-target-version 5.9.1 (29 Sep 2008)
%%abc-creator hum2abc beta
%%abcx-conversion-date 2019/03/15 08:38:45
%%humdrum-veritas 1257742933
%%humdrum-veritas-data 330635978
%%linebreak <none>
%%barnumbers 0
L: 1/8
M: 2/4
K: F clef=bass
[K:clef=bass][M:2/4]A,A,A,2 | 
A,G, F,C, | 
A,A, A,G, | 
F,C,C,2 | 
G,G, G,F, | 
F,C,C,2 | 
F,C,C,2 | 
C,2(3A,,A,,A,, | 
C,C,C,2 | 
G,G, G,F, | 
F,C,C,2 | 
F,C,C,2 | 
F,C,C,2 | 
z A,, (3A,,A,,A,, | 
F,C,C,2 | 
z A,, (3A,,A,,A,, | 
F,C,C,2 |]  



